v/0.4.11/design-resources/icons/wf_icons/twfr-on-device-ios.svg

<?xml version="1.0" encoding="utf-8"?>
<!-- Generated by IcoMoon.io -->
<!DOCTYPE svg PUBLIC "-//W3C//DTD SVG 1.1//EN" "http://www.w3.org/Graphics/SVG/1.1/DTD/svg11.dtd">
<svg version="1.1" xmlns="http://www.w3.org/2000/svg" xmlns:xlink="http://www.w3.org/1999/xlink" width="768" height="768" viewBox="0 0 768 768">
<g>
</g>
	<path d="M384 96c158.803 0 288 129.197 288 288s-129.197 288-288 288-288-129.197-288-288 129.197-288 288-288zM384 64c-176.731 0-320 143.269-320 320s143.269 320 320 320 320-143.269 320-320-143.269-320-320-320v0z" fill="#595959"></path>
	<path d="M506.675 249.844l-158.391 158.39-88.402-88.4-67.883 67.881 156.283 156.285 226.276-226.276z" fill="#595959"></path>
</svg>

<svg xmlns="http://www.w3.org/2000/svg" width="768" height="768" viewBox="0 0 768 768"><path stroke="#449FDB" d="M0 0"/><path d="M384 96c158.803 0 288 129.197 288 288S542.803 672 384 672 96 542.803 96 384 225.197 96 384 96zm0-32C207.27 64 64 207.27 64 384s143.27 320 320 320 320-143.27 320-320S560.73 64 384 64zm122.675 185.844l-158.39 158.39-88.403-88.4L192 387.714 348.28 544l226.276-226.276z" fill="#595959"/></svg>
